X: 4193
M: 6/8
L: 1/8
K: G
(uG/A/) |\
|: (f/g/) |\
a2f dfa | b2g dgb | c'2a b2g | faf def |\
a2f dfa | b2g dgb | aba gfe | d3- d2 :|


